!!!COM: Bach, Johann Sebastian
!!!OTL: 273. Ein' feste Burg ist unser Gott
!!!ONM: No. 273
!!!OCL: Erk
!!!SCA: BWV 80.8
!!!YOE: Riemenschneider, Albert
!!!OPR: 371 Harmonized Chorales and 69 Chorale Melodies with Figured Bass
!!!OPT: Bach Chorale Harmonizations
!!!ONB: From the end of Cantata 80.
**harm	**root	**kern	**kern	**kern	**kern
!	!	!bass	!tenor	!alto	!sprno
*Iorgan	*Iorgan	*Iorgan	*Iorgan	*Iorgan	*Iorgan
*>[A,A,B]	*>[A,A,B]	*>[A,A,B]	*>[A,A,B]	*>[A,A,B]	*>[A,A,B]
*>norep[A,B]	*>norep[A,B]	*>norep[A,B]	*>norep[A,B]	*>norep[A,B]	*>norep[A,B]
*>A	*>A	*>A	*>A	*>A	*>A
*k[f#c#g#d#a#e#b#]	*k[f#c#g#d#a#e#b#]	*k[f#c#g#d#a#e#b#]	*k[f#c#g#d#a#e#b#]	*k[f#c#g#d#a#e#b#]	*k[f#c#g#d#a#e#b#]
*C#:	*C#:	*C#:	*C#:	*C#:	*C#:
*met(c)	*met(c)	*met(c)	*met(c)	*met(c)	*met(c)
*M4/4	*M4/4	*M4/4	*M4/4	*M4/4	*M4/4
*MM60	*MM60	*MM60	*MM60	*MM60	*MM60
I	4DD	8c#	8e#	4g#	4cc#
.	.	8B#	8d#	.	.
=1	=1	=1	=1	=1	=1
vi7	4BB	4A#	8c#	8g#	4cc#
.	.	.	8d#	8f#	.
Ic	4DD	8G#	8e#	8e#	4cc#
.	.	8F#	8f#	8d#	.
Ib	8DD	8E#	4g#	4c#	8g#
IV	8GG	8F#	.	.	8a#
viib	4CC#	8E#	4f#	4d#	4b#
.	.	8D#	.	.	.
=2	=2	=2	=2	=2	=2
Ib	8DD	4E#	4e#	8G#	8cc#
iii	8FF#	.	.	4g#	8b#
V/V	4EE	4D#	8A#	.	4a#
.	.	.	8d#	8f##	.
V;	4AA;	4GG#;	4B#;	4d#;	4g#;
vi	4BB	4AA#	8E#	4a#	4cc#
.	.	.	8F##	.	.
=3	=3	=3	=3	=3	=3
Vb	4AA	8BB#	4G#	8d#	4b#
.	.	8C#	.	8e#	.
ii	4EE	4D#	8d#	4f#	4a#
.	.	.	8c#	.	.
iii	4FF#	4E#	4B#	8e#	4g#
.	.	.	.	8d#	.
IV	8GG	8F#	8A#	8c#	8a#
V	8AA	8G#	8B#	8B#	8g#
=4	=4	=4	=4	=4	=4
IVb	4GG	8A#	4c#	4A#	8f#
.	.	8F#	.	.	8e#
V	4AA	8G#	8G#	4B#	4d#
.	.	8GG#	8F#	.	.
I;	4DD;	4C#;	4E#;	4G#;	4c#;
=:|!	=:|!	=:|!	=:|!	=:|!	=:|!
*>B	*>B	*>B	*>B	*>B	*>B
!! Repeat from the beginning.
!! Continuing.
I	4DD	8C#	8E#	4c#	4c#
.	.	8D#	8F#	.	.
=5	=5	=5	=5	=5	=5
iii	4FF#	4E#	8G#	8B#	4g#
.	.	.	8c#	8e#	.
Vb/V	4EE	4F##	8B#	4d#	4a#
.	.	.	8A#	.	.
V	4AA	8G#	4B#	8d#	4g#
.	.	8C#	.	8e#	.
V/V	4EE	4D#	4A#	4d#	4f##
=6	=6	=6	=6	=6	=6
!!linebreak: 2
V;	2AA;	2GG#;	2B#;	2d#;	2g#;
vi	4BB	4AA#	8E#	4c#	4c#
.	.	.	8F#	.	.
Ib	4DD	4E#	4G#	8c#	4g#
.	.	.	.	8B	.
=7	=7	=7	=7	=7	=7
IV	4GG	4F#	4c#	8A#	4a#
.	.	.	.	8c#	.
viib	4CC#	4D#	4d#	4f#	4b#
I;	4DD;	4C#;	4G#;	4e#;	4cc#;
iii	4FF#	4E#	4G#	4e#	4b#
=8	=8	=8	=8	=8	=8
vi7	4BB	4AA#	8G#	4e#	4cc#
.	.	.	8F##	.	.
Vb	4AA	4BB#	4G#	8d#	4b#
.	.	.	.	8g#	.
vi7b	4BB	4C#	4G#	4e#	2a#
V/V	4EE	4D#	4F##	8d#	.
.	.	.	.	8c#	.
=9	=9	=9	=9	=9	=9
V;	4AA;	4GG#;	4D#;	4B#;	4g#;
ii	4EE	8D#	8F#	4d#	4a#
.	.	8E#	8G#	.	.
IV	4GG	4F#	8A#	8c#	4a#
.	.	.	8B#	8d#	.
I	4DD	4C#	8c#	4e#	4g#
.	.	.	8B	.	.
=10	=10	=10	=10	=10	=10
Vb/ii	4BB	4C##	4A#	4e#	8a#
.	.	.	.	.	8g#
ii	4EE	4D#	4A#	8e#	4f#
.	.	.	.	8d#	.
VI;	4BB;	4AA#;	4A#;	4c##;	4e#;
vi	4BB	4AA#	8A#	4e#	4cc#
.	.	.	8G#	.	.
=11	=11	=11	=11	=11	=11
viib	4CC#	8D#	8F#	4d#	4b#
.	.	8E#	8G#	.	.
IV	8GG	8F#	4A#	8c#	4a#
ii	8EE	8D#	.	8f#	.
V7b	8AA	8BB#	8d#	8f#	4g#
V	8AA	8GG#	8B#	16e#	.
.	.	.	.	16d#	.
I	4DD	8C#	4c#	4e#	8a#
.	.	8BB#	.	.	8g#
=12	=12	=12	=12	=12	=12
IVb	8GG	8AA#	4c#	8f#	8f#
IV7	8GG	8FF#	.	8A#	8e#
V	4AA	4GG#	8G#	4B#	4d#
.	.	.	8F#	.	.
I;	4DD;	4CC#;	4E#;	4G#;	4c#;
==	==	==	==	==	==
*-	*-	*-	*-	*-	*-
!!!CDT: 1685/3//-1750/7/28
!!!OCY: Deutschland
!!!AGN: chorale
!!!AST: Baroque
!!!AIN: vox
!!!YOY: 1941
!!!PPP: New York; London
!!!PPR: G. Schirmer
!!!ENC: David Huron
!!!EED: David Huron
!!!YEN: United States of America
!!!YER: 1992
!!!YEC: Copyright 1992 David Huron
!!!YEM: Rights to all derivative electronic formats reserved.
!!!YER: March 20, 1996
!!!AMT: simple quadruple
!!!EEV: 1.1
!!chor2scor: -l 2 -s 0.6 -o %b.pmx
